svg/smallAmethystBud1.svg

<?xml version="1.0" encoding="UTF-8" standalone="no"?>
<svg
   width="32"
   height="32"
   viewBox="0 0 8.467 8.467"
   version="1.1"
   id="svg1513"
   sodipodi:docname="smallAmethystBud1.svg"
   inkscape:version="1.2 (dc2aeda, 2022-05-15)"
   xmlns:inkscape="http://www.inkscape.org/namespaces/inkscape"
   xmlns:sodipodi="http://sodipodi.sourceforge.net/DTD/sodipodi-0.dtd"
   xmlns="http://www.w3.org/2000/svg"
   xmlns:svg="http://www.w3.org/2000/svg">
  <defs
     id="defs1517" />
  <sodipodi:namedview
     id="namedview1515"
     pagecolor="#505050"
     bordercolor="#ffffff"
     borderopacity="1"
     inkscape:showpageshadow="0"
     inkscape:pageopacity="0"
     inkscape:pagecheckerboard="1"
     inkscape:deskcolor="#505050"
     showgrid="true"
     inkscape:zoom="32.09375"
     inkscape:cx="11.108082"
     inkscape:cy="16.031159"
     inkscape:window-width="2560"
     inkscape:window-height="1301"
     inkscape:window-x="0"
     inkscape:window-y="25"
     inkscape:window-maximized="0"
     inkscape:current-layer="svg1513">
    <inkscape:grid
       type="xygrid"
       id="grid2051"
       empspacing="4" />
  </sodipodi:namedview>
  <path
     style="fill:#000000;stroke:none;stroke-width:0.264594px;stroke-linecap:butt;stroke-linejoin:miter;stroke-opacity:1"
     d="M 1.0583751,7.4086251 2.1167498,8.4669999 V 7.4086251 H 1.0583751"
     id="path743" />
  <path
     style="fill:#000000;stroke:none;stroke-width:0.264594px;stroke-linecap:butt;stroke-linejoin:miter;stroke-opacity:1"
     d="m 2.1167499,8.4670003 2.11675,-2.1167501 v 2.1167501 h -2.11675"
     id="path1136" />
  <path
     style="fill:#000000;stroke:none;stroke-width:0.264594px;stroke-linecap:butt;stroke-linejoin:miter;stroke-opacity:1"
     d="M 3.1751251,7.4086249 2.1167504,6.3502501 v 1.0583748 h 1.0583747"
     id="path1225" />
  <path
     style="fill:#000000;stroke:none;stroke-width:0.264594px;stroke-linecap:butt;stroke-linejoin:miter;stroke-opacity:1"
     d="m 5.2918751,7.4086251 1.058375,1.0583748 V 7.4086251 h -1.058375"
     id="path1229" />
  <path
     style="fill:#000000;stroke:none;stroke-width:0.264594px;stroke-linecap:butt;stroke-linejoin:miter;stroke-opacity:1"
     d="M 7.4086252,7.4086249 6.3502505,6.3502501 v 1.0583748 h 1.0583747"
     id="path1231" />
</svg>

<svg width="32" height="32" viewBox="0 0 8.467 8.467" xmlns="http://www.w3.org/2000/svg"><path style="fill:#000;stroke:none;stroke-width:.264594px;stroke-linecap:butt;stroke-linejoin:miter;stroke-opacity:1" d="m1.058 7.409 1.059 1.058V7.409H1.058M2.117 8.467 4.233 6.35v2.117H2.117"/><path style="fill:#000;stroke:none;stroke-width:.264594px;stroke-linecap:butt;stroke-linejoin:miter;stroke-opacity:1" d="M3.175 7.409 2.117 6.35V7.41h1.058M5.292 7.409 6.35 8.467V7.409H5.292M7.409 7.409 6.35 6.35V7.41H7.41"/></svg>
